X:204
T:Hiccup Truck (Tune For Leah)
C:Pete Marshal
N:From the CD "Get Up Into The Cool" by the group "Mando Mafia" Transcribed by Mike Stangeland
L:1/8
Q:1/4=240
M:4/4
K:D
z8 | z8 | z8 | "D"D2 d2 d2 AB | =cB Ac BD GB | AB AG FG (3EFE | D2 d2 d2 AB | 
=cB Ac BD GB | "A"[A2A2] [AA][AA] [A2A2] [A2A2] | "D"D2 d2 d2 AB | =cB Ac BD GB | 
AB AG FG EF | D2 DE FD EF | "G"GF GA BD GB | "A"A^G AB cA Bc | "D"d2 B2 A=F ^FA | 
"D"BD FE "A"[e2A2E2] A,B, |: "D"D2 d2 d2 AB | =cB Ac BD GB | AB AG FD EF | D2 d2 d2 AB | 
=cB Ac BD GB | "A"[A2A2] [AA][AA] [A2A2] [A2A2] | "D"D2 d2 d2 AB | =cB Ac BD GB | 
AB AG FG EF | D2 DE FD EF | "G"GF GA BD GB | "A"A^G AB cA Bc | "D"d2 B2 A=F ^FA | 
BA FE D4 :| 
K:A
"A"[D=G,][EA,] [EA,][EA,] [EA,][EA,] [EA,]G, | "C"=CB, CD E=G, CE | "D"D2 DD D2 DE | 
"F"=FD EF D=C A,2 | "A"[D=G,][EA,] [EA,][EA,] [EA,][EA,] G,B, | "C"=CB, CD E=G, CD | 
"E"DE EE EE DE | zE DE DE =G2 | "A"=GA A2 AA AB | "C"=cA dA ed c2 | "D"=cd dd dd cd | 
"F"d=c de dc A=G | "A"=GA A2 "G"BA G2 | "E"DE EE E2 D=C | "A"=G,A, A,A, A,A, A,A, | 
A,4 "E"[B4E4B,4] | {=G}"A"A2 A2 A2 AB | "C"=cA dA ed c2 | "D"=cd dd dd cd | "F"d=c de dc A=G | 
{=G}"A"A2 A2 AA AB | "C"=cB cd cB A=G | "E"DE EE EE DE | zE DE DE =G2 | "A"=GA A2 AA AB | 
"C"=cA dA ed c2 | "D"=cd dd dd cd | "F"d=c de dc A=G | "A"=GA A2 (3"G"ABA G2 | 
"E"DE EE E^D =D=C | "A"=G,A, A,A, A,A, A,A, | A,4 "E"[B4E4B,4] :| "A"A,8 | 
 

